X:6
T:Molly St. George
T:Molly Saint George
R:air
C:Thomas Connellan (c. 1640 - 1698) (?)
Z:id:hn-air-6
M:3/4
L:1/8
K:G
de/f/ | g2 gf ed | d2 ed cB | c2 B2 A>G | E4 A/B/d |
e2 ge dB | A2 B/c/d D2 | E2 GA/B/ AG | G4 :|
DE/F/ | GA B2 AB/c/ | B2 cB AG | cB cd ef | g4 ef/g/ |
a2 ba ge | d2 ed cB | c2 cd Bc | A4 AB |
cB cd ef | g4 fe | d2 dB AG | E4 Bd |
e2 ge dB | A2 B/c/d D2 | E2 GA/B/ A>G | G4 || 
<end>
<start>
